source/img/sprite.svg

<svg xmlns="http://www.w3.org/2000/svg">

    <symbol id="icon-htmlacademy" viewBox="0 0 27 34">
      <path d="M13.6426 0.0157537L13.5 0L0 1.40733V26.0129L13.5 34L27 26.0129V1.40733L13.6426 0.0157537ZM25.2344 25.0151L13.5 31.9573L1.76561 25.0151V14.9293L13.4507 21.8451L13.4701 23.0984L5.45351 18.3548L5.44295 19.5801L13.4894 24.3885L13.5088 25.675L5.46408 20.9174L5.45351 22.1427L13.5 26.9511L21.6239 22.1182V20.8929V16.909L25.2432 14.7595L25.2344 25.0151ZM25.2344 13.4519L22.0147 15.3319L20.5325 16.2071L13.4666 12.0201L13.456 13.2454L19.4957 16.818L19.4429 16.8495L19.3126 16.9247L18.4536 17.4166L13.4666 14.4689L13.456 15.6942L17.3921 18.0222L16.4591 18.6314L16.438 18.6436L13.4666 16.902L13.456 18.1273L15.4029 19.2615L13.4155 20.4483L1.7973 13.5762L13.4349 6.61831L25.2344 13.4519ZM25.2344 12.2266L13.4401 5.31075L1.76561 12.2196V2.9897L13.5 1.76442L25.2344 2.9897V12.2266Z"/>
    </symbol>

    <symbol id="icon-social-vk" viewBox="0 0 28 22">
      <path d="M1 5.33876C1 4.48373 1.5151 4.02268 2.54531 3.95562L6.51515 3.98077C6.78158 3.98077 6.95921 4.10651 7.04802 4.35799C7.45655 5.61538 7.91392 6.70094 8.42014 7.61465C8.92637 8.52835 9.58801 9.58038 10.4051 10.7707C10.4761 10.9216 10.5916 10.997 10.7514 10.997C10.8758 10.997 10.9735 10.9384 11.0445 10.821L11.1244 10.5444L11.1511 6.19379C11.1511 5.89201 11.0756 5.69083 10.9246 5.59024C10.7736 5.48965 10.4939 5.4142 10.0853 5.36391C9.76563 5.31361 9.60577 5.12919 9.60577 4.81065C9.60577 4.74359 9.61465 4.69329 9.63241 4.65976C10.0054 3.57002 11.0711 3.02515 12.8296 3.02515L14.3216 3C14.9966 3 15.5561 3.15927 16.0001 3.47781C16.4442 3.79635 16.6662 4.29931 16.6662 4.98669V10.6953C16.7906 10.7791 16.906 10.821 17.0126 10.821C17.279 10.821 17.5099 10.6701 17.7053 10.3683C19.6592 7.78649 20.716 6.05966 20.8759 5.18787C20.8759 5.1711 20.8936 5.12919 20.9291 5.06213C21.0535 4.81065 21.2577 4.5927 21.5419 4.40828C21.8261 4.22387 22.0748 4.09813 22.288 4.03107C22.359 3.99753 22.4389 3.98077 22.5277 3.98077H26.6574L26.9239 4.00592C27.2791 4.00592 27.5544 4.16519 27.7498 4.48373C27.8209 4.58432 27.8697 4.69329 27.8964 4.81065C27.923 4.92801 27.9408 5.04536 27.9496 5.16272C27.9585 5.28008 27.963 5.34714 27.963 5.36391V5.53994C27.8386 6.22732 27.5233 6.9608 27.0171 7.74038C26.5109 8.51997 25.867 9.36243 25.0855 10.2678C24.304 11.1731 23.8155 11.7682 23.6201 12.0533C23.4603 12.2544 23.3803 12.4389 23.3803 12.6065C23.3803 12.7406 23.4514 12.8915 23.5935 13.0592L27.4834 17.6864C27.6965 17.9546 27.8031 18.248 27.8031 18.5666C27.8031 18.9522 27.6432 19.2707 27.3235 19.5222C27.0038 19.7737 26.6219 19.9162 26.1779 19.9497L25.7249 19.9749H21.6752C21.6574 19.9749 21.6219 19.979 21.5686 19.9874C21.5153 19.9958 21.4798 20 21.462 20C21.0712 20 20.7071 19.8407 20.3696 19.5222C20.2453 19.3881 19.4105 18.3989 17.8652 16.5547C17.7764 16.4374 17.652 16.3284 17.4922 16.2278C17.4211 16.4961 17.3279 16.8817 17.2124 17.3846C17.097 17.8876 17.0126 18.248 16.9593 18.466L16.8794 18.8935C16.7018 19.4803 16.3287 19.8323 15.7604 19.9497L15.3874 19.9749H12.7763C11.3021 19.9749 9.83224 19.3378 8.36686 18.0636C6.90148 16.7894 5.58264 15.1423 4.41034 13.122C3.23803 11.1018 2.14566 8.75049 1.13322 6.06805C1.04441 5.8501 1 5.607 1 5.33876ZM17.0126 11.8521C16.6396 11.8521 16.3021 11.7557 16.0001 11.5629C15.6982 11.3701 15.5472 11.106 15.5472 10.7707V4.98669C15.5472 4.65138 15.4584 4.41248 15.2808 4.26997C15.1032 4.12747 14.7923 4.05621 14.3483 4.05621L12.8296 4.10651C12.0658 4.10651 11.4886 4.23225 11.0978 4.48373C11.8793 4.8358 12.2701 5.40582 12.2701 6.19379V10.6198C12.2346 11.039 12.0569 11.3868 11.7372 11.6635C11.4175 11.9401 11.0623 12.0784 10.6715 12.0784C10.1386 12.0784 9.7301 11.8353 9.44591 11.3491C8.06046 9.37081 7.03025 7.4931 6.35529 5.71598L6.1155 5.06213L2.57195 5.03698C2.34104 5.03698 2.21227 5.04956 2.18562 5.0747C2.15898 5.09985 2.14566 5.1711 2.14566 5.28846C2.14566 5.43935 2.16342 5.59862 2.19895 5.76627L2.75845 7.17456C4.25048 10.8126 5.87127 13.6795 7.62085 15.7751C9.37042 17.8708 11.0889 18.9186 12.7763 18.9186H15.4406C15.5472 18.9186 15.6271 18.8893 15.6804 18.8306C15.7337 18.7719 15.7781 18.6588 15.8136 18.4911L15.8669 18.2396L16.3732 16.0266C16.5152 15.7249 16.6396 15.5237 16.7462 15.4231C16.9415 15.2387 17.1725 15.1465 17.4389 15.1465C17.8652 15.1465 18.3003 15.3895 18.7444 15.8757L21.0091 18.5917C21.1512 18.8097 21.3022 18.9186 21.462 18.9186H25.8581C26.391 18.9186 26.6574 18.7929 26.6574 18.5414C26.6574 18.4576 26.6308 18.3738 26.5775 18.2899L22.7142 13.7382C22.4123 13.3861 22.2613 13.0089 22.2613 12.6065C22.2613 12.2041 22.4034 11.8185 22.6876 11.4497C22.9185 11.1144 23.367 10.557 24.0331 9.77737C24.6992 8.99778 25.2809 8.26849 25.7782 7.5895C26.2756 6.9105 26.6042 6.29438 26.764 5.74112L26.8439 5.4142C26.8262 5.38067 26.8173 5.32618 26.8173 5.25074C26.8173 5.1753 26.8084 5.11243 26.7907 5.06213H22.6077C22.3412 5.16272 22.1281 5.31361 21.9682 5.51479L21.8084 5.9926C21.3643 7.14941 20.2009 8.93491 18.3181 11.3491C17.9451 11.6844 17.5099 11.8521 17.0126 11.8521Z"/>
    </symbol>

    <symbol id="icon-social-youtube" viewBox="0 0 28 22">
      <path d="M17.8509 10.7927L12.6145 7.30184C12.5159 7.23691 12.4016 7.19985 12.2837 7.19459C12.1657 7.18934 12.0486 7.21608 11.9446 7.27198C11.8406 7.32789 11.7537 7.41087 11.693 7.51215C11.6324 7.61343 11.6002 7.72924 11.6 7.84729V14.8291C11.6001 14.9481 11.6327 15.0648 11.6942 15.1667C11.7557 15.2686 11.8438 15.3518 11.9491 15.4073C12.0524 15.4631 12.1691 15.4895 12.2864 15.4837C12.4037 15.478 12.5172 15.4402 12.6145 15.3746L17.8509 11.8837C17.9409 11.8239 18.0148 11.7429 18.0658 11.6477C18.1169 11.5526 18.1436 11.4462 18.1436 11.3382C18.1436 11.2302 18.1169 11.1239 18.0658 11.0287C18.0148 10.9335 17.9409 10.8525 17.8509 10.7927ZM12.9091 13.6073V9.06911L16.3127 11.3382L12.9091 13.6073ZM25.3891 5.04366C25.2942 4.67547 25.1131 4.33511 24.8609 4.05061C24.6086 3.76611 24.2924 3.54561 23.9382 3.40729C20.2182 1.9782 14.2509 2.00002 14 2.00002C13.7491 2.00002 7.78182 1.9782 4.06182 3.40729C3.70764 3.54561 3.3914 3.76611 3.13914 4.05061C2.88689 4.33511 2.70584 4.67547 2.61091 5.04366C2.32727 6.11275 2 8.07638 2 11.3382C2 14.6 2.32727 16.5637 2.61091 17.6327C2.70584 18.0009 2.88689 18.3413 3.13914 18.6258C3.3914 18.9103 3.70764 19.1308 4.06182 19.2691C7.78182 20.6982 13.7491 20.6764 14 20.6764H14.0764C14.8291 20.6764 20.3927 20.6327 23.9382 19.2691C24.2924 19.1308 24.6086 18.9103 24.8609 18.6258C25.1131 18.3413 25.2942 18.0009 25.3891 17.6327C25.6727 16.5637 26 14.6 26 11.3382C26 8.07638 25.6727 6.11275 25.3891 5.04366ZM24.1236 17.3055C24.0807 17.472 23.999 17.6259 23.8853 17.7548C23.7715 17.8838 23.6289 17.984 23.4691 18.0473C19.9782 19.3891 14.0655 19.3673 14 19.3673C13.9345 19.3673 8.02182 19.3891 4.53091 18.0473C4.37107 17.984 4.22846 17.8838 4.11471 17.7548C4.00096 17.6259 3.91929 17.472 3.87636 17.3055C3.61455 16.3018 3.30909 14.4582 3.30909 11.3382C3.30909 8.2182 3.61455 6.37457 3.87636 5.37093C3.91929 5.20445 4.00096 5.05047 4.11471 4.92156C4.22846 4.79264 4.37107 4.69243 4.53091 4.62911C8.02182 3.28729 13.9345 3.30911 14 3.30911C14.0655 3.30911 19.9782 3.28729 23.4691 4.62911C23.6289 4.69243 23.7715 4.79264 23.8853 4.92156C23.999 5.05047 24.0807 5.20445 24.1236 5.37093C24.3855 6.37457 24.6909 8.2182 24.6909 11.3382C24.6909 14.4582 24.3855 16.3018 24.1236 17.3055Z"/>
    </symbol>

    <symbol id="icon-social-telegram" viewBox="0 0 28 22">
      <path fill-rule="evenodd" clip-rule="evenodd" d="M23.4608 3.15291C23.6393 3.30222 23.7255 3.5349 23.6872 3.76448L21.0611 19.5214C21.0244 19.7411 20.8789 19.9273 20.6745 20.0159C20.47 20.1045 20.2346 20.0833 20.0493 19.9597L12.1708 14.7074C12.0177 14.6054 11.9145 14.4437 11.8862 14.2619C11.858 14.08 11.9074 13.8947 12.0223 13.751L14.633 10.4877L10.273 13.3944C10.077 13.525 9.82597 13.5407 9.61524 13.4353L4.36293 10.8092C4.12769 10.6915 3.98535 10.4449 4.0012 10.1824C4.01705 9.91983 4.18804 9.6921 4.43573 9.60364L22.8188 3.03826C23.038 2.95998 23.2822 3.00359 23.4608 3.15291ZM6.32626 10.3228L9.86168 12.0905L17.4231 7.0495C17.6925 6.86994 18.0525 6.91349 18.2712 7.1521C18.49 7.3907 18.5022 7.75314 18.3 8.00591L13.495 14.0121L19.9328 18.3039L22.2083 4.65058L6.32626 10.3228Z"/>
    </symbol>

    <symbol id="icon-footer-logo" viewBox="0 0 128 24" fill="none">
      <g clip-path="url(#clip0_135_3260)">
      <path d="M1.60253 22.0513C0.468358 20.3682 -0.0946573 18.3503 3.016e-05 16.3077V7.79487C-0.137317 5.73031 0.390444 3.67661 1.50238 1.94872C2.6041 0.615385 4.30676 0 6.81067 0C9.31458 0 10.9171 0.615385 11.9187 1.74359C13.006 3.17255 13.5409 4.96181 13.421 6.76923V8.82051H8.51333V6.46154C8.55297 5.76385 8.45065 5.06533 8.21286 4.41026C8.08576 4.14583 7.88431 3.9264 7.63443 3.78018C7.38455 3.63395 7.09766 3.56763 6.81067 3.58974C6.10958 3.58974 5.60879 3.79487 5.40848 4.30769C5.18191 5.03643 5.08025 5.79984 5.10801 6.5641V17.5385C5.05512 18.2799 5.19327 19.0227 5.50864 19.6923C5.70895 20.2051 6.20973 20.4103 6.91083 20.4103C7.61192 20.4103 8.01255 20.2051 8.21286 19.6923C8.44058 18.9992 8.54242 18.2692 8.51333 17.5385V15.0769H13.421V17.1282C13.5229 18.9651 12.9911 20.7803 11.9187 22.2564C10.9171 23.4872 9.21443 24.1026 6.81067 24.1026C4.40692 24 2.6041 23.3846 1.60253 22.0513Z" fill="#111111"/>
      <path d="M19.3302 0.307617H25.0391L29.2457 23.6922H24.6385L23.8372 18.7692H20.5321L19.7308 23.6922H15.0235L19.3302 0.307617ZM23.4366 15.6922L22.2347 6.56403L21.0329 15.6922H23.4366Z" fill="#111111"/>
      <path d="M32.7512 4.20505H29.3459V0.307617H41.2645V4.10249H37.8592V23.6922H32.7512V4.20505Z" fill="#111111"/>
      <path d="M50.3787 0.307617H59.1925V2.76916H53.4836V10.4615H58.0908V12.8204H53.4836V21.4358H59.1925V23.7948H50.2786V0.307617H50.3787Z" fill="#111111"/>
      <path d="M61.7966 0.307617H64L70.5102 15.7948V0.307617H73.1142V23.6922H71.1111L64.5008 7.69223V23.6922H61.7966V0.307617Z" fill="#111111"/>
      <path d="M76.1189 0.307617H84.9327V2.76916H79.2238V10.4615H83.831V12.8204H79.2238V21.4358H84.9327V23.7948H76.1189V0.307617Z" fill="#111111"/>
      <path d="M87.5368 0.3076H92.144C93.9564 0.179397 95.7575 0.685711 97.2519 1.7435C98.3537 2.66657 98.8544 4.3076 98.8544 6.46145C98.8544 9.4358 97.953 11.282 96.0501 11.8973L99.2551 23.5897H96.1502L93.1455 12.6153H90.6416V23.5897H87.4366V0.3076H87.5368ZM91.9437 10.3589C92.9762 10.446 94.0053 10.1553 94.8482 9.53837C95.4491 9.02555 95.7496 7.99991 95.7496 6.46145C95.7774 5.69719 95.6757 4.93378 95.4491 4.20504C95.2237 3.68211 94.8366 3.24964 94.3474 2.97427C93.6576 2.65236 92.9003 2.51137 92.144 2.56401H90.7418V10.2563H91.9437V10.3589Z" fill="#111111"/>
      <path d="M102.861 21.9487C101.82 20.1554 101.331 18.0821 101.459 15.9999V8.20507C101.434 6.71875 101.602 5.23567 101.959 3.79481C102.294 2.71811 102.962 1.78218 103.862 1.12815C104.981 0.450275 106.271 0.128917 107.568 0.20507C109.671 0.20507 111.174 0.71789 112.075 1.8461C113.112 3.33582 113.608 5.14977 113.477 6.9743V7.79481H110.473V7.07687C110.477 6.21789 110.41 5.36008 110.272 4.51276C110.188 3.97732 109.9 3.49792 109.471 3.17943C108.908 2.80104 108.24 2.62099 107.568 2.66661C106.85 2.61949 106.139 2.83785 105.565 3.28199C105.329 3.48529 105.137 3.73569 104.999 4.01787C104.861 4.30004 104.781 4.60805 104.764 4.92302C104.632 5.83993 104.565 6.76543 104.563 7.69225V16.4102C104.49 17.7384 104.694 19.0674 105.164 20.3076C105.565 21.1281 106.366 21.4358 107.568 21.4358C108.043 21.4964 108.524 21.4119 108.952 21.1929C109.38 20.9739 109.734 20.6302 109.972 20.2051C110.501 18.9081 110.741 17.5064 110.673 16.1025V14.4615H107.768V12.1025H113.577V23.6923H111.574L111.274 21.0256C111.011 21.9193 110.465 22.6975 109.72 23.2364C108.976 23.7753 108.078 24.0441 107.167 23.9999C106.34 24.0498 105.513 23.8885 104.761 23.5304C104.01 23.1724 103.357 22.6289 102.861 21.9487Z" fill="#111111"/>
      <path d="M119.987 15.4871L115.08 0.410156H118.084L121.59 11.6922L124.995 0.410156H128L123.092 15.4871V23.6922H120.088V15.4871H119.987Z" fill="#111111"/>
    </g>
    <defs>
      <rect width="128" height="24" fill="white"/>
    </defs>
    </symbol>

    <symbol id="icon-form-email" viewBox="0 0 19 14" fill="none">
      <line x1="1.18955" y1="6" x2="1.18955" y2="14" stroke-width="1.3"/>
      <line x1="18.1896" y1="6" x2="18.1896" y2="14" stroke-width="1.3"/>
      <line x1="0.539551" y1="13.35" x2="18.5396" y2="13.35" stroke-width="1.3"/>
      <line x1="0.539551" y1="1.35" x2="18.5396" y2="1.35" stroke-width="1.3"/>
      <path d="M17.8896 3.1821L9.53957 9.67654L1.18955 3.18209V1.65H4.03955L9.53957 1.65H14.5396H17.8896V3.1821Z" stroke-width="1.3"/>
    </symbol>

    <symbol id="icon-form-phone" viewBox="0 0 20 20">
      <path d="M17.7561 9.4H9.61816V10.6H17.7561L15.7455 12.7L16.6072 13.6L19.5752 10.5C19.6684 10.3702 19.7188 10.2123 19.7188 10.05C19.7188 9.88772 19.6684 9.72982 19.5752 9.6L16.6072 6.5L15.7455 7.4L17.7561 9.4Z"/>
      <path d="M8.37362 19.4V13.2C8.36256 13.0447 8.29849 12.8987 8.19306 12.7886C8.08763 12.6785 7.94786 12.6116 7.79917 12.6H3.5866C3.59153 12.9167 3.71415 13.2189 3.92855 13.4428C4.14295 13.6668 4.43232 13.7949 4.73548 13.8H7.12899V18.8H3.5866C3.35992 18.8149 3.13268 18.7825 2.91809 18.7048C2.70349 18.6271 2.50582 18.5057 2.33656 18.3475C2.1673 18.1893 2.02983 17.9976 1.93215 17.7834C1.83446 17.5693 1.7785 17.337 1.76753 17.1V3.10001C1.75968 2.6373 1.92564 2.18977 2.22987 1.85331C2.5341 1.51686 2.95238 1.31824 3.39512 1.30001H7.12899V6.30001H4.83122C4.52806 6.30516 4.23869 6.43324 4.02429 6.65718C3.80989 6.88112 3.68727 7.18336 3.68234 7.50001H7.89491C8.0436 7.48846 8.18337 7.42154 8.2888 7.31142C8.39423 7.2013 8.4583 7.05531 8.46936 6.90001V0.600012C8.42369 0.443872 8.33642 0.304534 8.21775 0.198285C8.09907 0.0920352 7.95389 0.0232649 7.79917 1.23734e-05H3.5866C3.20936 -0.0133408 2.8333 0.0511002 2.47993 0.189651C2.12655 0.328202 1.80279 0.538145 1.52714 0.807477C1.2515 1.07681 1.02939 1.40025 0.8735 1.7593C0.717613 2.11835 0.631012 2.50598 0.618647 2.90001V16.8C0.590902 17.1977 0.642233 17.597 0.769411 17.9729C0.89659 18.3489 1.09686 18.6932 1.35764 18.9844C1.61841 19.2756 1.93405 19.5072 2.28469 19.6648C2.63534 19.8224 3.0134 19.9024 3.39512 19.9H7.79917C7.86953 19.915 7.94222 19.9133 8.01186 19.895C8.0815 19.8767 8.1463 19.8423 8.20147 19.7942C8.25664 19.7462 8.30075 19.6859 8.33055 19.6176C8.36035 19.5494 8.37507 19.475 8.37362 19.4Z"/>
    </symbol>
  </svg>

<svg xmlns="http://www.w3.org/2000/svg" xmlns:xlink="http://www.w3.org/1999/xlink"><symbol id="footer-logo"><g fill="none"><g clip-path="url(#clip0_135_3260)" fill="#111"><path d="M1.603 22.051A9.498 9.498 0 0 1 0 16.308V7.795a9.63 9.63 0 0 1 1.502-5.846C2.604.615 4.307 0 6.811 0s4.106.615 5.108 1.744a7.487 7.487 0 0 1 1.502 5.025v2.052H8.513V6.46a5.157 5.157 0 0 0-.3-2.05 1.463 1.463 0 0 0-.579-.63 1.415 1.415 0 0 0-.823-.191c-.701 0-1.202.205-1.403.718a6.774 6.774 0 0 0-.3 2.256v10.974a4.334 4.334 0 0 0 .4 2.154c.2.513.702.718 1.403.718.7 0 1.102-.205 1.302-.718.228-.693.33-1.423.3-2.154v-2.461h4.908v2.051a7.98 7.98 0 0 1-1.502 5.128c-1.002 1.231-2.705 1.847-5.108 1.847-2.404-.103-4.207-.718-5.208-2.052ZM19.33.308h5.71l4.206 23.384h-4.607l-.802-4.923h-3.305l-.801 4.923h-4.708L19.33.308Zm4.107 15.384-1.202-9.128-1.202 9.128h2.404ZM32.751 4.205h-3.405V.308h11.918v3.794H37.86v19.59h-5.108V4.205ZM50.379.308h8.814v2.461h-5.71v7.692h4.608v2.36h-4.607v8.615h5.709v2.359h-8.914V.308h.1ZM61.797.308H64l6.51 15.487V.308h2.604v23.384h-2.003l-6.61-16v16h-2.704V.308ZM76.119.308h8.814v2.461h-5.71v7.692h4.608v2.36h-4.607v8.615h5.709v2.359h-8.814V.308ZM87.537.308h4.607a7.873 7.873 0 0 1 5.108 1.436c1.102.923 1.602 2.564 1.602 4.717 0 2.975-.901 4.821-2.804 5.436l3.205 11.693H96.15l-3.005-10.975h-2.503V23.59h-3.205V.308h.1Zm4.407 10.05a4.302 4.302 0 0 0 2.904-.82c.601-.512.902-1.538.902-3.077a6.772 6.772 0 0 0-.3-2.256 2.583 2.583 0 0 0-1.103-1.23 4.473 4.473 0 0 0-2.203-.411h-1.402v7.692h1.202v.103ZM102.861 21.949a10.566 10.566 0 0 1-1.402-5.95V8.206c-.025-1.486.143-2.97.5-4.41a5.204 5.204 0 0 1 1.903-2.667 6.421 6.421 0 0 1 3.706-.923c2.103 0 3.606.513 4.507 1.641a7.982 7.982 0 0 1 1.402 5.128v.82h-3.004v-.717a15.503 15.503 0 0 0-.201-2.564 2.056 2.056 0 0 0-.801-1.334 3.04 3.04 0 0 0-1.903-.512 2.955 2.955 0 0 0-2.003.615 2.349 2.349 0 0 0-.801 1.641 19.734 19.734 0 0 0-.201 2.77v8.717a9.527 9.527 0 0 0 .601 3.898c.401.82 1.202 1.128 2.404 1.128.475.06.956-.024 1.384-.243a2.45 2.45 0 0 0 1.02-.988 9.635 9.635 0 0 0 .701-4.102V14.46h-2.905v-2.359h5.809v11.59h-2.003l-.3-2.666a4.18 4.18 0 0 1-1.554 2.21 4.016 4.016 0 0 1-2.553.764 4.907 4.907 0 0 1-2.406-.47 5.037 5.037 0 0 1-1.9-1.581ZM119.987 15.487 115.08.41h3.004l3.506 11.282L124.995.41H128l-4.908 15.077v8.205h-3.004v-8.205h-.101Z"/></g></g></symbol><symbol id="html-academy"><path d="M13.643.016 13.5 0 0 1.407v24.606L13.5 34 27 26.013V1.407L13.643.016Zm11.591 25L13.5 31.956 1.766 25.015V14.93l11.685 6.916.02 1.253-8.017-4.743-.011 1.225 8.046 4.809.02 1.286-8.045-4.758-.01 1.226L13.5 26.95l8.124-4.833V16.91l3.62-2.15-.01 10.256Zm0-11.564-3.22 1.88-1.482.875-7.065-4.187-.011 1.225 6.04 3.573-.053.031-.13.076-.86.492-4.986-2.948-.011 1.225 3.936 2.328-.933.61-.021.012-2.971-1.742-.011 1.225 1.947 1.135-1.988 1.186-11.618-6.872 11.638-6.958 11.8 6.834Zm0-1.225L13.44 5.31 1.766 12.22V2.99L13.5 1.764 25.234 2.99v9.237Z"/></symbol><symbol id="icon-email"><g fill="none"><path d="M1.179 6v8M18.179 6v8M.529 13.35h18M.529 1.35h18M17.88 3.182 9.53 9.677 1.18 3.182V1.65h16.7v1.532Z"/></g></symbol><symbol id="icon-phone"><g fill="none"><g class="form__contact-icon-color"><path d="M17.756 9.4H9.618v1.2h8.138l-2.01 2.1.861.9 2.968-3.1a.772.772 0 0 0 0-.9l-2.968-3.1-.861.9 2.01 2ZM8.374 19.4v-6.2a.663.663 0 0 0-.18-.411.611.611 0 0 0-.395-.189H3.587c.005.317.127.619.342.843.214.224.503.352.806.357H7.13v5H3.587a1.645 1.645 0 0 1-.669-.095 1.7 1.7 0 0 1-.581-.357 1.785 1.785 0 0 1-.405-.565 1.854 1.854 0 0 1-.164-.683v-14c-.008-.463.158-.91.462-1.247A1.664 1.664 0 0 1 3.395 1.3H7.13v5H4.831a1.144 1.144 0 0 0-.807.357 1.247 1.247 0 0 0-.342.843h4.213a.611.611 0 0 0 .394-.189.663.663 0 0 0 .18-.411V.6a.864.864 0 0 0-.251-.402A.808.808 0 0 0 7.799 0H3.587A2.762 2.762 0 0 0 2.48.19a2.856 2.856 0 0 0-.953.617 3 3 0 0 0-.653.952A3.111 3.111 0 0 0 .619 2.9v13.9c-.028.398.023.797.15 1.173.128.376.328.72.589 1.011.26.292.576.523.927.68.35.158.728.238 1.11.236H7.8a.46.46 0 0 0 .402-.106.497.497 0 0 0 .173-.394Z"/></g></g></symbol><symbol id="icon-telegram"><path fill-rule="evenodd" clip-rule="evenodd" d="M19.46.153c.18.15.265.382.227.611l-2.626 15.757a.657.657 0 0 1-1.012.439l-7.878-5.253a.656.656 0 0 1-.149-.956l2.611-3.263-4.36 2.906a.657.657 0 0 1-.658.041L.363 7.81a.657.657 0 0 1 .073-1.205L18.819.038a.657.657 0 0 1 .642.115ZM2.327 7.323 5.862 9.09l7.561-5.04a.656.656 0 0 1 .877.956l-4.805 6.006 6.438 4.292L18.208 1.65 2.326 7.323Z"/></symbol><symbol id="icon-vkontakte"><path fill-rule="evenodd" clip-rule="evenodd" d="M1 5.339c0-.855.515-1.316 1.545-1.383l3.97.025a.52.52 0 0 1 .533.377c.409 1.257.866 2.343 1.372 3.257.506.913 1.168 1.965 1.985 3.156.071.15.187.226.346.226.125 0 .223-.059.293-.176l.08-.277.027-4.35c0-.302-.075-.503-.226-.604-.151-.1-.431-.176-.84-.226-.32-.05-.48-.235-.48-.553 0-.067.01-.118.027-.151.373-1.09 1.44-1.635 3.198-1.635L14.322 3c.675 0 1.234.16 1.678.478.444.318.666.821.666 1.509v5.708c.125.084.24.126.347.126.266 0 .497-.15.692-.453 1.954-2.582 3.011-4.308 3.17-5.18 0-.017.019-.059.054-.126.125-.251.329-.47.613-.654.284-.184.533-.31.746-.377a.554.554 0 0 1 .24-.05h4.13l.266.025c.355 0 .63.16.826.478.07.1.12.21.146.327.027.117.045.234.054.352.009.117.013.184.013.2v.177c-.124.687-.44 1.42-.946 2.2-.506.78-1.15 1.622-1.931 2.528-.782.905-1.27 1.5-1.466 1.785-.16.201-.24.386-.24.553 0 .135.071.286.213.453l3.89 4.627c.213.269.32.562.32.88 0 .386-.16.705-.48.956-.32.252-.701.394-1.145.428l-.453.025h-4.05a.855.855 0 0 0-.106.012.862.862 0 0 1-.107.013c-.39 0-.755-.16-1.092-.478-.125-.134-.96-1.123-2.505-2.967a1.387 1.387 0 0 0-.373-.327c-.07.268-.164.654-.28 1.157-.115.503-.2.863-.253 1.081l-.08.427c-.177.587-.55.94-1.119 1.057l-.373.025h-2.61c-1.475 0-2.945-.637-4.41-1.911-1.466-1.275-2.784-2.922-3.957-4.942-1.172-2.02-2.264-4.372-3.277-7.054A1.916 1.916 0 0 1 1 5.338Zm16.013 6.513c-.373 0-.71-.096-1.013-.29-.302-.192-.453-.456-.453-.791V4.987c0-.336-.089-.575-.266-.717-.178-.143-.489-.214-.933-.214l-1.518.05c-.764 0-1.341.126-1.732.378.781.352 1.172.922 1.172 1.71v4.426a1.5 1.5 0 0 1-.533 1.044 1.59 1.59 0 0 1-1.066.414c-.532 0-.94-.243-1.225-.729C8.06 9.371 7.03 7.493 6.356 5.716l-.24-.654-3.544-.025c-.231 0-.36.013-.386.038-.027.025-.04.096-.04.213 0 .151.017.31.053.478l.56 1.409c1.491 3.638 3.112 6.505 4.862 8.6 1.75 2.096 3.468 3.144 5.155 3.144h2.665c.106 0 .186-.03.24-.088.053-.06.097-.172.133-.34l.053-.251.506-2.213c.142-.302.267-.503.373-.604a.975.975 0 0 1 .693-.277c.426 0 .861.243 1.305.73l2.265 2.716c.142.218.293.327.453.327h4.396c.533 0 .8-.126.8-.378a.466.466 0 0 0-.08-.251l-3.864-4.552c-.302-.352-.453-.73-.453-1.131 0-.403.142-.788.427-1.157.23-.336.679-.893 1.345-1.673a37.63 37.63 0 0 0 1.745-2.187c.498-.68.826-1.296.986-1.849l.08-.327a.371.371 0 0 1-.027-.163.574.574 0 0 0-.026-.189h-4.183c-.267.1-.48.252-.64.453l-.16.478c-.444 1.156-1.607 2.942-3.49 5.356a1.892 1.892 0 0 1-1.305.503Z"/></symbol><symbol id="icon-youtube"><path fill-rule="evenodd" clip-rule="evenodd" d="m17.85 10.793-5.236-3.491a.655.655 0 0 0-1.014.545v6.982a.654.654 0 0 0 1.014.546l5.237-3.491a.655.655 0 0 0 0-1.091Zm-4.94 2.814V9.07l3.403 2.27-3.404 2.268Zm12.48-8.563a2.4 2.4 0 0 0-1.452-1.637C20.218 1.978 14.251 2 14 2c-.25 0-6.218-.022-9.938 1.407A2.4 2.4 0 0 0 2.61 5.044C2.327 6.113 2 8.076 2 11.338c0 3.262.327 5.226.61 6.295a2.4 2.4 0 0 0 1.452 1.636c3.72 1.43 9.687 1.407 9.938 1.407h.076c.753 0 6.317-.043 9.862-1.407a2.4 2.4 0 0 0 1.451-1.636c.284-1.07.611-3.033.611-6.295s-.327-5.225-.61-6.294Zm-1.266 12.261a1.09 1.09 0 0 1-.655.742c-3.49 1.342-9.404 1.32-9.469 1.32-.066 0-5.978.022-9.47-1.32a1.09 1.09 0 0 1-.654-.742c-.261-1.003-.567-2.847-.567-5.967 0-3.12.306-4.963.567-5.967a1.09 1.09 0 0 1 .655-.742C8.02 3.287 13.935 3.31 14 3.31c.066 0 5.978-.022 9.47 1.32a1.092 1.092 0 0 1 .654.742c.262 1.004.567 2.847.567 5.967 0 3.12-.305 4.964-.567 5.967Z"/></symbol></svg>
